X: 163
T: Jimalong Josie
B: canberra pickers and fiddlers
B: old time tunes update
B: tunes
L:1/8
Q: 1/4=100
K:D
V:1 
:A2BA F2(F/2G/2F|E)DE2 F2-A2|A2 BA F2 F2|EDEF D4:|
Addc d3e|dAFA [EA][DA][EA][FA]|Dd2c dAFA|EDEF/E/ D4|
Adde d3c|dAFA [EA][DA][EA]F/E/|DFAc dAFA|EDEF D3([Dd]||
A)-dfd A-dfd|edef edcd|A-d{g}fd A-d{g}fd|edef d3d|
x-dfd A-dfd|edef edcd|A-d{g}fd A-d{g}fd|edef d2 (3ABc||
d2A-c d2 (AB/c/|d)AFA [EA][DA][EA](F/E/|D)FAc dAFA|EDEF/E/ D3 (c|
d)AFA d2 (AB/c/|d)AFA [EA][DA][EA](F/E/|D)FAc dAFA|EDE(F/E/ D4)||
% abcbook-tune_id 67a7d9ec012b315bc2b223a4
% abcbook-tune_composer_id 
% abcbook-link-0 https://www.youtube.com/watch?v=b60STdYCzPw
% abcbook-link-title-0 Jim Along Josie
% abcbook-boost 0
% abcbook-difficulty 0
% abcbook-tags old time tunes
% abcbook-tablature 
% abcbook-transpose 
% abcbook-tuning DDAD
% abcbook-lastupdated 1739061713898
% abcbook-src-url 
% abcbook-soundfonts 
% abcbook-repeats 1


